X:1
T:Title
%%score { ( 1 4 5 ) | ( 2 3 ) }
L:1/8
M:3/8
K:C
V:1 treble nm="Grand Piano"
V:4 treble 
V:5 treble 
V:2 bass 
V:3 bass 
V:1
 z z[Q:1/4=106] C | E2 F | G2 F | E2 _E | E2 F | E2 D | C3- | C2 C | E2 F | G2 [FA] | [EG]2 [GB] | %11
 [FA]2 [Ac] | [GB]2 [FA] | [EG]3- | [EG]2 z | [DF]2 E | D2 [FG] | [EG]2 F | E2 [FA] | [FA]2 G | %20
 [DF]3- | [DF]2 [DF] | [DF]2 E | D2 C | B,2 C | D2 [E,G,CE] | [DF]2 z | [E,G,C]3- | %28
 [E,G,C]2[K:treble] [Ec] | [Ec]2 [FB] | [Gc]2 G | [Ec]2 [FB] | [Gc]2 G | [Ec]2 [FB] | [F_B]3- | %35
 [FB]2 [D_B] | [F_B]2 [_EA] | [F_B]2 F | [F_B]2 [_EA] | [F_B]2 F | _B2 A | [F^G]3- | [FG]2 ^G | %43
 [F^G]2 =G | ^G2 =G | [DF]2 _E | D2 C | B,2 C | D3- | D2 C | C2 D | _E2 E | _E2 [DF] | %53
 [_EG]2 [EG] | [_EG]2 [FB] | [_Ec]3- | [Ec]2 z |] %57
V:2
 z3 | C2 D | E2 [C,F,A,C] | C2 z | C2 [C,F,A,C] | [C,E,G,C]2 [B,,F,G,B,] | [C,E,G,]3- | [C,E,G,]3 | %8
 C2 D | E2 [C,F,A,] | [C,G,]3- | [C,F,G,-A,]3 | [B,,F,G,]3- | [B,,F,G,]3 | z z D | z z C | %16
 B,2 [B,,F,G,] | z z D | C2 [C,F,A,] | [C,F,A,]3 | [B,,F,G,]3- | [B,,F,G,]3 | z z C | %23
 B,2 [C,E,G,] | z3 | B,2 C, | z z B, | C,3 | C,2 [C,G,] | [C,G,]2 [D,F,] | [C,E,]3 | %31
 [C,G,]2 [D,F,] | [C,E,]3 | [C,G,]2 [G,B,] | [D,F,_B,]3- | [D,F,B,]3 | [D,F,_B,]2 [_E,A,] | %37
 [D,_B,]3 | [D,_B,]2 [_E,A,] | [D,_B,]3 | [D,_B,D]2 [A,F] | [C,F,^G,]3- | [C,F,G,]3 | %43
 [C,F,]2 [_E,G,_E] | [C,F,C]2 [C,_E,G,C] | [B,,F,G,]3 | [B,,F,G,]2 [C,_E,G,] | [B,,F,G,]2 [_E,G,] | %48
 [D,F,G,B,]3- | [D,F,G,B,]2 [C,_E,G,] | [C,_E,G,]2 [B,,F,G,] | C2 C | [C,_E,G,C]2 [C,F,^G,] | %53
 [C,_E,G,]3 | [C,_E,G,]2 [B,,F,G,] | [C,_E,G,]3- | [C,E,G,]2 z |] %57
V:3
 x3 | [C,E,G,]3- | [C,E,G,]2 z | [C,E,G,]3- | [C,E,G,]2 z | x3 | x3 | x3 | [C,E,G,]3- | %9
 [C,E,G,]2 z | E,3 | x3 | x3 | x3 | B,,3 | [B,,F,G,]3- | [B,,F,G,]2 z | [C,E,G,]3- | [C,E,G,]2 z | %19
 x3 | x3 | x3 | [B,,F,G,]3- | [B,,F,G,]2 z | [B,,F,G,]3- | [B,,F,G,]2 z | B,,3 | x3 | x3 | x3 | %30
 x3 | x3 | x3 | x3 | x3 | x3 | x3 | x3 | x3 | x3 | x3 | x3 | x3 | x3 | x3 | x3 | x3 | x3 | x3 | %49
 x3 | x3 | [C,_E,G,]3 | x3 | x3 | x3 | x3 | x3 |] %57
V:4
 x3 | x3 | x3 | x3 | x3 | x3 | x3 | x3 | x3 | x3 | x3 | x3 | x3 | x3 | z z F | x3 | x3 | x3 | x3 | %19
 x3 | x3 | x3 | x3 | x3 | x3 | x3 | [F,G,]3 | x3 | x2[K:treble] x | x3 | x3 | x3 | x3 | x3 | x3 | %35
 x3 | x3 | x3 | x3 | x3 | x3 | x3 | x3 | x3 | x3 | x3 | x3 | x3 | x3 | x3 | x3 | x3 | x3 | x3 | %54
 x3 | x3 | x3 |] %57
V:5
 x3 | x3 | x3 | x3 | x3 | x3 | x3 | x3 | x3 | x3 | x3 | x3 | x3 | x3 | [F,G,]3 | x3 | x3 | x3 | %18
 x3 | x3 | x3 | x3 | x3 | x3 | x3 | x3 | x3 | x3 | x2[K:treble] x | x3 | x3 | x3 | x3 | x3 | x3 | %35
 x3 | x3 | x3 | x3 | x3 | x3 | x3 | x3 | x3 | x3 | x3 | x3 | x3 | x3 | x3 | x3 | x3 | x3 | x3 | %54
 x3 | x3 | x3 |] %57

